X: 114201
Q: "Strathspey."
M: C
L: 1/16
K: C
uE2 |\
vC4 uC3uF (EG3) uG3uA | c3de3d c3A (Gc3) |\
c3de3d c3A (Gc3) |\
uf2 |\
ve3vfug3ua g3ec3g | agfe vd3uf ve3vduc3uG |
ve3vfug3ua g3ec3g | agfe df3 e3dc3G |\


